Numix-GalliumOS/32/mimetypes/application-x-desktop.svg

<?xml version="1.0" encoding="UTF-8" standalone="no"?>
<svg
   xmlns:dc="http://purl.org/dc/elements/1.1/"
   xmlns:cc="http://creativecommons.org/ns#"
   xmlns:rdf="http://www.w3.org/1999/02/22-rdf-syntax-ns#"
   xmlns:svg="http://www.w3.org/2000/svg"
   xmlns="http://www.w3.org/2000/svg"
   xmlns:sodipodi="http://sodipodi.sourceforge.net/DTD/sodipodi-0.dtd"
   xmlns:inkscape="http://www.inkscape.org/namespaces/inkscape"
   width="32"
   height="32"
   viewBox="0 0 32 32"
   id="svg2"
   version="1.1"
   inkscape:version="0.48.5 r10040"
   sodipodi:docname="application-x-desktop.svg">
  <metadata
     id="metadata16">
    <rdf:RDF>
      <cc:Work
         rdf:about="">
        <dc:format>image/svg+xml</dc:format>
        <dc:type
           rdf:resource="http://purl.org/dc/dcmitype/StillImage" />
      </cc:Work>
    </rdf:RDF>
  </metadata>
  <defs
     id="defs14" />
  <sodipodi:namedview
     pagecolor="#ffffff"
     bordercolor="#666666"
     borderopacity="1"
     objecttolerance="10"
     gridtolerance="10"
     guidetolerance="10"
     inkscape:pageopacity="0"
     inkscape:pageshadow="2"
     inkscape:window-width="1280"
     inkscape:window-height="970"
     id="namedview12"
     showgrid="true"
     inkscape:zoom="7.375"
     inkscape:cx="14.392833"
     inkscape:cy="21.534433"
     inkscape:window-x="0"
     inkscape:window-y="0"
     inkscape:window-maximized="1"
     inkscape:current-layer="svg2">
    <inkscape:grid
       type="xygrid"
       id="grid3004" />
  </sodipodi:namedview>
  <path
     style="fill:#dcdcdc;fill-opacity:1"
     d="M 5.335888,2.969e-4 C 4.648414,3.119e-4 4,0.6767878 4,1.3940311 L 4,30.606268 C 4,31.282757 4.687474,32 5.335888,32 l 21.327332,0 c 0.648414,0 1.335888,-0.717243 1.335888,-1.393732 L 28,8.9999996 l -9,-9 z"
     id="path4-1"
     inkscape:connector-curvature="0"
     sodipodi:nodetypes="ssssssccs" />
  <path
     style="fill:#000000;fill-opacity:0.19599998"
     d="M 21,8.9999996 28,16 28,8.9999996 z"
     id="path6-4"
     inkscape:connector-curvature="0"
     sodipodi:nodetypes="cccc" />
  <path
     style="fill:#ffffff;fill-opacity:0.39200003"
     d="m 19.000306,2.969e-4 8.991594,8.9997027 -7.613262,0 c -0.672951,0 -1.378332,-0.7134896 -1.378332,-1.3864402 z"
     id="path8-6"
     inkscape:connector-curvature="0"
     sodipodi:nodetypes="ccssc" />
  <path
     style="fill:#888"
     d="M 15.550781 9.40625 C 14.214844 9.832031 15.386719 11.820312 13.472656 12.792969 C 11.289062 13.90625 10.203125 11.097656 8.890625 13.105469 C 7.578125 15.109375 10.699219 14.800781 10.613281 17.160156 C 10.523438 19.519531 7.433594 19.019531 8.59375 21.101562 C 9.753906 23.183594 11.042969 20.453125 13.140625 21.699219 C 15.238281 22.945312 13.230469 25.253906 15.703125 25.332031 C 18.175781 25.410156 16.339844 22.984375 18.527344 21.871094 C 20.710938 20.757812 21.796875 23.570312 23.109375 21.5625 C 24.421875 19.558594 21.300781 19.867188 21.386719 17.507812 C 21.476562 15.148438 24.566406 15.648438 23.40625 13.566406 C 22.246094 11.480469 20.957031 14.214844 18.859375 12.96875 C 16.761719 11.722656 18.769531 9.414062 16.296875 9.335938 C 15.988281 9.328125 15.742188 9.34375 15.550781 9.40625 Z M 15.574219 15.414062 C 16.679688 15.191406 17.761719 15.867188 17.996094 16.925781 C 18.230469 17.984375 17.527344 19.027344 16.425781 19.253906 C 15.320312 19.476562 14.238281 18.800781 14.003906 17.742188 C 13.769531 16.683594 14.472656 15.640625 15.574219 15.414062 Z "
     id="path10" />
</svg>

<svg xmlns="http://www.w3.org/2000/svg" viewBox="0 0 32 32">
 <path d="m 5.336 0 c -0.687 0 -1.336 0.676 -1.336 1.394 l 0 29.21 c 0 0.676 0.687 1.394 1.336 1.394 l 21.327 0 c 0.648 0 1.336 -0.717 1.336 -1.394 l 0.001 -21.606 l -9 -9 z" style="fill:#dcdcdc;fill-opacity:1"/>
 <path d="m 21 9 7 7 0 -7 z" style="fill:#000;fill-opacity:0.196"/>
 <path d="m 19 0 8.992 9 -7.613 0 c -0.673 0 -1.378 -0.713 -1.378 -1.386 z" style="fill:#fff;fill-opacity:0.392"/>
 <path d="m 15.551 9.406 c -1.336 0.426 -0.164 2.414 -2.078 3.387 c -2.184 1.113 -3.27 -1.695 -4.582 0.313 c -1.313 2 1.809 1.695 1.723 4.055 c -0.09 2.359 -3.18 1.859 -2.02 3.941 c 1.16 2.082 2.449 -0.648 4.547 0.598 c 2.098 1.246 0.09 3.555 2.563 3.633 c 2.473 0.078 0.637 -2.348 2.824 -3.461 c 2.184 -1.113 3.27 1.699 4.582 -0.309 c 1.313 -2 -1.809 -1.695 -1.723 -4.055 c 0.09 -2.359 3.18 -1.859 2.02 -3.941 c -1.16 -2.086 -2.449 0.648 -4.547 -0.598 c -2.098 -1.246 -0.09 -3.555 -2.563 -3.633 c -0.309 -0.008 -0.555 0.008 -0.746 0.07 m 0.023 6.01 c 1.105 -0.223 2.188 0.453 2.422 1.512 c 0.234 1.059 -0.469 2.102 -1.57 2.328 c -1.105 0.223 -2.188 -0.453 -2.422 -1.512 c -0.234 -1.059 0.469 -2.102 1.57 -2.328 Z" style="fill:#888"/>
</svg>
